!!!COM: Gaspar van Weerbeke
!!!CDT: ~1450-~1517
!!!OPR: Lamentatio Ieremiae prophetae
!!!OTL: In coena Domini. Lectio prima
!!!OMV: 1
!!!AGN: Motet; Lamentation
!!!SCT: Gas0501a
!!!SCA: Gas0501a
!!!voices: 4
**kern	**text	**kern	**text	**kern	**text	**kern	**text
*part4	*part4	*part3	*part3	*part2	*part2	*part1	*part1
*staff4	*staff4	*staff3	*staff3	*staff2	*staff2	*staff1	*staff1
*I"Bassus	*	*I"Tenor	*	*I"Altus	*	*I"Superius	*
*I'B	*	*I'T	*	*I'A	*	*I'S	*
*clefF4	*	*clefGv2	*	*clefGv2	*	*clefG2	*
*k[]	*	*k[]	*	*k[]	*	*k[]	*
*M2/2	*	*M2/2	*	*M2/2	*	*M2/2	*
*met(C|)	*	*met(C|)	*	*met(C|)	*	*met(C|)	*
=1	=1	=1	=1	=1	=1	=1	=1
!!LO:TX:a:t=[In coena Domini. Primo nocturno]\n[Lectio prima]
*	*	*	*	*lig	*	*	*
1F	In-	1F	In-	1c	In-	[1f	In-
=2	=2	=2	=2	=2	=2	=2	=2
1D	.	1A	.	1d	.	1f]	.
*	*	*	*	*Xlig	*	*	*
=3	=3	=3	=3	=3	=3	=3	=3
[1C	.	[1c	.	[1e	.	[1g	.
=4	=4	=4	=4	=4	=4	=4	=4
1C]	.	1c]	.	1e]	.	1g]	.
=5	=5	=5	=5	=5	=5	=5	=5
[1F	.	[1c	.	[1f	.	[1a	.
=6	=6	=6	=6	=6	=6	=6	=6
2F]	.	2c]	.	2f]	.	2a]	.
2F	-ci-	2c	-ci-	2f	-ci-	2a	ci-
=7	=7	=7	=7	=7	=7	=7	=7
1F	-pit	1c	-pit	1f	-pit	1a	-pit
!!LO:LB:g=original
=8	=8	=8	=8	=8	=8	=8	=8
1r	.	1r	.	1r	.	1r	.
=9	=9	=9	=9	=9	=9	=9	=9
2A	la-	2c	la-	2e	la-	2a	la-
2A	-men-	2c	-men-	2e	-men-	2a	-men-
=10	=10	=10	=10	=10	=10	=10	=10
[1A	-ta-	[1c	-ta-	[1e	-ta-	[1a	-ta-
=11	=11	=11	=11	=11	=11	=11	=11
2A]	.	2c]	.	2e]	.	2a]	.
2D	-ti-	2d	-ti-	2f	-ti-	2a	-ti-
=12	=12	=12	=12	=12	=12	=12	=12
1D	-o	1d	-o	1f	-o	1a	-o
=13	=13	=13	=13	=13	=13	=13	=13
2E	Ie-	2B	Ie-	2e	Ie-	2g	Ie-
2F	-re-	2A	-re-	2c	-re-	2a	-re-
!!LO:LB:g=original
=14	=14	=14	=14	=14	=14	=14	=14
1BB-X	-mi-	1d	-mi-	1f	-mi-	1b-i	-mi-
=15	=15	=15	=15	=15	=15	=15	=15
1F	-e	1c	-e	1f	-e	1a	-e
=16	=16	=16	=16	=16	=16	=16	=16
2G	pro-	2B-i	pro-	2d	pro-	2g	pro-
[2F	.	[2c	.	2f	.	[2a	.
=17	=17	=17	=17	=17	=17	=17	=17
2F]	.	2c]	.	2f	-phe-	2a]	.
2C	-phe-	2c	-phe-	4e	.	2g	.
.	.	.	.	[4c	.	.	.
=18	=18	=18	=18	=18	=18	=18	=18
*	*	*lig	*	*	*	*	*
1D	.	2A	.	4c]	.	1f	-phe-
.	.	.	.	8BL	.	.	.
.	.	.	.	8AJ	.	.	.
.	.	2F	.	4A	.	.	.
*	*	*Xlig	*	*	*	*	*
.	.	.	.	4B	.	.	.
=19	=19	=19	=19	=19	=19	=19	=19
1C	.	1G	.	[1cl	te.	1e	.
=20	=20	=20	=20	=20	=20	=20	=20
1Fl	te.	1Fl	te.	1c]	.	1fl	te.
!!LO:LB:g=original
=21||	=21||	=21||	=21||	=21||	=21||	=21||	=21||
1r	.	1F	-A-	1f	-A-	1a	-A-
=22	=22	=22	=22	=22	=22	=22	=22
1r	.	2.G	.	[1d	.	2.b-i	.
.	.	4A	.	.	.	4a	.
=23	=23	=23	=23	=23	=23	=23	=23
*	*	*	*	*	*	*lig	*
*	*	*lig	*	*	*	*	*
1r	.	2B-i	.	1d]	.	2g	.
.	.	2d	.	.	.	2f	.
*	*	*Xlig	*	*	*	*Xlig	*
=24	=24	=24	=24	=24	=24	=24	=24
1r	.	1c	.	1e	.	1g	.
=25	=25	=25	=25	=25	=25	=25	=25
1r	.	1Fl	-leph.	1fl	-leph.	1fl	-leph.
!!LO:PB:g=original
=26||	=26||	=26||	=26||	=26||	=26||	=26||	=26||
1D	-Quo-	1A	Quo-	1d	Quo-	1f	Quo-
=27	=27	=27	=27	=27	=27	=27	=27
1C	-mo-	1c	-mo-	1e	-mo-	1g	-mo-
=28	=28	=28	=28	=28	=28	=28	=28
1F	-do	1c	-do	1f	-do	1a	-do
=29	=29	=29	=29	=29	=29	=29	=29
2F	se-	2c	se-	2f	se-	2a	se-
2F	-det	2c	-det	2f	-det	2a	-det
=30	=30	=30	=30	=30	=30	=30	=30
1F	so-	1c	so-	1f	so-	1a	so-
=31	=31	=31	=31	=31	=31	=31	=31
2D	-la	2d	-la	2f	-la	2a	-la
[2D	ci-	[2d	ci-	[2f	ci-	[2a	ci-
!!LO:LB:g=original
=32	=32	=32	=32	=32	=32	=32	=32
2D]	.	2d]	.	2f]	.	2a]	.
2D	-vi-	2d	-vi-	2f	-vi-	2a	-vi-
=33	=33	=33	=33	=33	=33	=33	=33
1E	-tas	1B	-tas	1e	-tas	1g	-tas
=34	=34	=34	=34	=34	=34	=34	=34
1G	ple-	2r	.	1d	ple-	1b-i	ple-
.	.	[2d	ple-	.	.	.	.
=35	=35	=35	=35	=35	=35	=35	=35
1D	-na	2d]	.	1f	-na	1a	-na
.	.	2d	-na	.	.	.	.
=36	=36	=36	=36	=36	=36	=36	=36
2E	po-	2B	po-	2e	po-	2g	po-
2C	-pu-	2c	-pu-	2e	-pu-	2g	-pu-
=37	=37	=37	=37	=37	=37	=37	=37
*	*	*lig	*	*	*	*	*
1E	-lo.	1B	-lo.	1e	-lo.	1g	-lo.
=38	=38	=38	=38	=38	=38	=38	=38
0AAl	.	0Al	.	0el	.	0al	.
*	*	*Xlig	*	*	*	*	*
!!LO:LB:g=original
==39	==39	==39	==39	==39	==39	==39	==39
1A	Fa-	1c	Fa-	1c	Fa-	1f	Fa-
=40	=40	=40	=40	=40	=40	=40	=40
1G	-cta	1B-j	-cta	1d	-cta	1g	-cta
=41	=41	=41	=41	=41	=41	=41	=41
1F	est	1c	est	1f	est	1a	est
=42	=42	=42	=42	=42	=42	=42	=42
2A	qua-	2c	qua-	2c	qua-	2f	qua-
2A	-si	2c	-si	2c	-si	2e	-si
=43	=43	=43	=43	=43	=43	=43	=43
2.A	vi-	2.c	vi-	2.e	vi-	2.a	vi-
4A	-du-	4c	-du-	4e	-du-	4a	-du-
=44	=44	=44	=44	=44	=44	=44	=44
2A	-a	2c	-a	2e	-a	2a	-a
2r	.	2r	.	2r	.	2r	.
!!LO:LB:g=original
=45	=45	=45	=45	=45	=45	=45	=45
2.G	do-	2.G	do-	2r	.	2.b-i	do-
.	.	.	.	2d	do-	.	.
4F	-mi-	4A	-mi-	.	.	4a	-mi-
=46	=46	=46	=46	=46	=46	=46	=46
2E	-na	2B	-na	4e	-mi-	2g	-na
.	.	.	.	2e	-na	.	.
2r	.	[2c	gen-	.	.	[2a	gen-
.	.	.	.	[4e	gen-	.	.
=47	=47	=47	=47	=47	=47	=47	=47
1r	.	4c]	.	4e]	.	4a]	.
.	.	4A	-ti-	2f	-ti-	4a	-ti-
.	.	2G	.	.	.	2b-i	.
.	.	.	.	4e	.	.	.
=48	=48	=48	=48	=48	=48	=48	=48
1r	.	1F	-um,	1f	-um,	1a	-um,
=49	=49	=49	=49	=49	=49	=49	=49
1r	.	1r	.	1r	.	1r	.
=50	=50	=50	=50	=50	=50	=50	=50
1D	prin-	1F	prin-	1A	prin-	1f	prin-
!!LO:PB:g=original
=51	=51	=51	=51	=51	=51	=51	=51
1C	-ceps	1G	-ceps	1c	-ceps	1e	-ceps
=52	=52	=52	=52	=52	=52	=52	=52
2BB-X	pro-	2B-X	pro-	2d	pro-	2f	pro-
[2BB-	-vin-	[2B-	-vin-	[2d	-vin-	[2f	-vin-
=53	=53	=53	=53	=53	=53	=53	=53
2BB-]	.	2B-]	.	2d]	.	2f]	.
2D	-ci-	2A	-ci-	2d	-ci-	2f	-ci-
=54	=54	=54	=54	=54	=54	=54	=54
1G	-a-	1B-i	-a-	1d	-a-	1g	-a-
=55	=55	=55	=55	=55	=55	=55	=55
1D	-rum	1A	-rum	1d	-rum	1a	-rum
=56	=56	=56	=56	=56	=56	=56	=56
1r	.	1r	.	1r	.	1r	.
!!LO:LB:g=original
=57	=57	=57	=57	=57	=57	=57	=57
2.G	fa-	2.B-i	fa-	1r	.	2.d	fa-
4G	-cta	4B-i	-cta	.	.	4e	-cta
=58	=58	=58	=58	=58	=58	=58	=58
1D	est	1A	est	2.d	fa-	1f	est
.	.	.	.	4d	-cta	.	.
=59	=59	=59	=59	=59	=59	=59	=59
2G	sub	2B-i	sub	2d	est	2g	sub
2F	tri-	[2c	tri-	[2f	sub	[2a	tri-
=60	=60	=60	=60	=60	=60	=60	=60
*lig	*	*	*	*	*	*	*
2F	-bu-	2c]	.	4f]	.	2a]	.
.	.	.	.	4e	.	.	.
2E	.	2G	.	2c	tri-	[2g	-bu-
*Xlig	*	*	*	*	*	*	*
=61	=61	=61	=61	=61	=61	=61	=61
1D	-to,	1A	-bu-	1d	-bu-	2g]	.
.	.	.	.	.	.	2f#i	.
=62	=62	=62	=62	=62	=62	=62	=62
2r	.	1G	-to,	1d	-to,	1g	-to,
*	*edit	*	*	*	*	*	*
2G	sub	.	.	.	.	.	.
!!LO:LB:g=original
=63	=63	=63	=63	=63	=63	=63	=63
*	*	*	*edit	*	*edit	*	*edit
*lig	*	*	*	*	*	*	*
2F	.	1c	sub	1f	sub	2.a	sub
2A	.	.	.	.	.	.	.
*Xlig	*	*	*	*	*	*	*
.	.	.	.	.	.	4cc	.
=64	=64	=64	=64	=64	=64	=64	=64
1G	.	2.d	tri-	2.g	tri-	2.b-i	tri-
.	.	4c	.	8fL	.	4a	.
.	.	.	.	8eJ	.	.	.
=65	=65	=65	=65	=65	=65	=65	=65
2r	.	2B-X	-bu-	2d	-bu-	2g	-bu-
2F	tri-	2A	.	2c	.	[2a	.
=66	=66	=66	=66	=66	=66	=66	=66
*	*	*lig	*	*	*	*	*
1D	-bu-	1F	.	4.d	.	2a]	.
.	.	.	.	8c	.	.	.
.	.	.	.	4.A	.	[2f	.
.	.	.	.	8B	.	.	.
=67	=67	=67	=67	=67	=67	=67	=67
1C	.	1G	.	[1cl	to.	2f]	.
*	*	*Xlig	*	*	*	*	*
.	.	.	.	.	.	2e	.
=68	=68	=68	=68	=68	=68	=68	=68
1Fl	to.	1Fl	to.	1c]	.	1fl	to.
!!LO:LB:g=original
=69||	=69||	=69||	=69||	=69||	=69||	=69||	=69||
*	*Xedit	*	*	*	*	*	*Xedit
*	*	*	*	*	*	*lig	*
1BB-i	-Beth.	[1d	.	1r	.	1b-i	-Beth.
=70	=70	=70	=70	=70	=70	=70	=70
1D	.	1d]	.	1r	.	1a	.
*	*	*	*	*	*	*Xlig	*
=71	=71	=71	=71	=71	=71	=71	=71
1E-i	.	2.B-i	.	1r	.	1g	.
.	.	8AL	.	.	.	.	.
.	.	8GJ	.	.	.	.	.
=72	=72	=72	=72	=72	=72	=72	=72
*	*	*lig	*	*	*	*	*
1D	.	1F	.	1r	.	2.a	.
.	.	.	.	.	.	8gL	.
.	.	.	.	.	.	8fJ	.
=73	=73	=73	=73	=73	=73	=73	=73
1C	.	1G	.	1r	.	1e	.
*	*	*Xlig	*	*	*	*	*
=74	=74	=74	=74	=74	=74	=74	=74
1Fl	.	1Fl	.	1r	.	1fl	.
!!LO:PB:g=original
=75||	=75||	=75||	=75||	=75||	=75||	=75||	=75||
*	*	*	*Xedit	*	*	*	*
1r	.	1F	-Plo-	1r	.	1f	Plo-
=76	=76	=76	=76	=76	=76	=76	=76
*	*	*	*	*	*Xedit	*	*
1r	.	1G	-rans	1g	-Plo-	1d	-rans
=77	=77	=77	=77	=77	=77	=77	=77
1r	.	1A	plo-	2e	-rans	1c	plo-
.	.	.	.	2e	plo-	.	.
=78	=78	=78	=78	=78	=78	=78	=78
1r	.	1B-i	-ra-	1d	-ra-	1f	-ra-
=79	=79	=79	=79	=79	=79	=79	=79
1r	.	2c	-vit	2c	-vit	2e	-vit
.	.	2A	in	2c	in	2f	in
=80	=80	=80	=80	=80	=80	=80	=80
1r	.	1B-i	no-	1d	no-	1g	no-
!!LO:LB:g=original
=81	=81	=81	=81	=81	=81	=81	=81
1r	.	1A	-cte,	1e	-cte,	1a	-cte,
=82	=82	=82	=82	=82	=82	=82	=82
2r	.	2r	.	2r	.	2r	.
2A	Et	2c	et	2e	et	2a	et
=83	=83	=83	=83	=83	=83	=83	=83
2.B-i	la-	2.d	la-	2.d	la-	2.g	la-
4A	-cri-	4c	-cri-	4e	-cri-	4a	-cri-
=84	=84	=84	=84	=84	=84	=84	=84
*	*	*	*	*lig	*	*	*
*	*	*lig	*	*	*	*	*
1G	-me	2d	-me	2g	-me	1b-i	-me
.	.	2B-i	.	2e	.	.	.
*	*	*Xlig	*	*Xlig	*	*	*
=85	=85	=85	=85	=85	=85	=85	=85
2F	e-	2c	e-	2f	e-	2a	e-
2F	-ius	2c	-ius	2f	-ius	2a	-ius
=86	=86	=86	=86	=86	=86	=86	=86
2r	.	2r	.	2r	.	2r	.
2A	in	2c	in	2f	in	2a	in
!!LO:LB:g=original
=87	=87	=87	=87	=87	=87	=87	=87
2G	ma-	2d	ma-	2d	ma-	2b-i	ma-
[2F	-xil-	[2A	-xil-	[2f	-xil-	[2cc	-xil-
=88	=88	=88	=88	=88	=88	=88	=88
2F]	.	2A]	.	2f]	.	2cc]	.
2G	.	2G	.	2d	.	2b-i	.
=89	=89	=89	=89	=89	=89	=89	=89
2F	-lis	2c	-lis	1f	-lis	2a	-lis
2D	.	2d	.	.	.	[2a	e-
=90	=90	=90	=90	=90	=90	=90	=90
1E	e-	1B	e-	1e	e-	2a]	.
.	.	.	.	.	.	2g#i	.
=91	=91	=91	=91	=91	=91	=91	=91
1AAl	ius.	1Al	ius.	1el	ius.	1al	ius.
=92||	=92||	=92||	=92||	=92||	=92||	=92||	=92||
1A	-Non	1r	.	1c	-Non	1f	-Non
!!LO:LB:g=original
=93	=93	=93	=93	=93	=93	=93	=93
1B-i	est	1r	.	1d	est	1g	est
=94	=94	=94	=94	=94	=94	=94	=94
1A	qui	1c	-Non	1e	qui	1a	qui
=95	=95	=95	=95	=95	=95	=95	=95
2D	con-	2d	est	2f	con-	2a	con-
2D	-so-	2d	qui	2f	-so-	2a	-so-
=96	=96	=96	=96	=96	=96	=96	=96
[1F	-le-	2c	con-	1f	-le-	[1a	-le-
.	.	2c	-so-	.	.	.	.
=97	=97	=97	=97	=97	=97	=97	=97
2F]	.	2d	-le-	2f	-tur	2a]	.
2G	-tur	2d	-tur	2d	.	2b-i	-tur
=98	=98	=98	=98	=98	=98	=98	=98
1G	e-	1d	e-	1g	e-	1b-i	e-
!!LO:PB:g=original
=99	=99	=99	=99	=99	=99	=99	=99
1D	-am	1d	-am	1f	-am	1a-i	-am
=100	=100	=100	=100	=100	=100	=100	=100
1r	.	2r	.	2r	.	2r	.
.	.	2G	ex	2d	ex	2g	ex
=101	=101	=101	=101	=101	=101	=101	=101
1r	.	2.A	o-	2.c	o-	2.f	o-
.	.	4A	-mni-	4c	-mni-	4f	-mni-
=102	=102	=102	=102	=102	=102	=102	=102
*	*	*	*	*lig	*	*	*
2r	.	2G	-bus	2d	-bus	1g	-bus
2C	ca-	2G	ca-	2e	.	.	.
*	*	*	*	*Xlig	*	*	*
=103	=103	=103	=103	=103	=103	=103	=103
*	*	*	*	*	*	*lig	*
2D	-ris	2D	-ris	4r	.	2f	ca-
.	.	.	.	4A	ca-	.	.
2C	e-	[2G	e-	[2c	.	2e	-ris
*	*	*	*	*	*	*Xlig	*
=104	=104	=104	=104	=104	=104	=104	=104
1D	.	4G]	.	4c]	.	1f	e-
.	.	8FL	.	8BL	-ris	.	.
.	.	8EJ	.	8AJ	.	.	.
.	.	2F	.	2B	e-	.	.
!!LO:LB:g=original
=105	=105	=105	=105	=105	=105	=105	=105
1C	-ius,	1G	-ius,	1c	-ius,	1e	-ius,
=106	=106	=106	=106	=106	=106	=106	=106
1r	.	1r	.	1r	.	1r	.
=107	=107	=107	=107	=107	=107	=107	=107
1D	o-	1F	o-	1A	o-	1r	.
=108	=108	=108	=108	=108	=108	=108	=108
1D	-mnes	1A	-mnes	1d	-mnes	1r	.
=109	=109	=109	=109	=109	=109	=109	=109
2D	a-	2A	a-	2d	a-	1r	.
[2G	-mi-	[2B-i	-mi-	[2d	-mi-	.	.
=110	=110	=110	=110	=110	=110	=110	=110
2G]	.	2B-]	.	2d]	.	1r	.
2A	-ci	2A	-ci	2d	-ci	.	.
!!LO:LB:g=original
=111	=111	=111	=111	=111	=111	=111	=111
1B-i	e-	1G	e-	1d	e-	1r	.
=112	=112	=112	=112	=112	=112	=112	=112
1A	-ius	1A	-ius	1c	-ius	1r	.
=113	=113	=113	=113	=113	=113	=113	=113
2r	.	2r	.	2r	.	2r	.
2A	spre-	2c	spre-	2f	spre-	2a	spre-
=114	=114	=114	=114	=114	=114	=114	=114
[1G	-ve-	[1d	-ve-	[1g	-ve-	[1b-i	-ve-
=115	=115	=115	=115	=115	=115	=115	=115
2G]	.	2d]	.	2g]	.	2b-]	.
2A	-runt	2c	-runt	2e	-runt	2a	-runt
=116	=116	=116	=116	=116	=116	=116	=116
1E	e-	1B	e-	1e	e-	1g	e-
!!LO:LB:g=original
=117	=117	=117	=117	=117	=117	=117	=117
1F	-am	1A	-am	1c	-am	1a	-am
=118	=118	=118	=118	=118	=118	=118	=118
1r	.	1A	et	1c	et	1e	et
=119	=119	=119	=119	=119	=119	=119	=119
1D	et	1A	fa-	[1d	fa-	1f	fa-
=120	=120	=120	=120	=120	=120	=120	=120
2G	fa-	2B	-cti	2d]	.	2g	-cti
[2C	-cti	[2c	sunt	[2e	-cti	[2g	sunt
=121	=121	=121	=121	=121	=121	=121	=121
2C]	.	2c]	.	2e]	.	2g]	.
2E	sunt	2c	e-	2g	sunt	2g	e-
=122	=122	=122	=122	=122	=122	=122	=122
2F	e-	2c	-i	2f	e-	2a	-i
2F	-i	2c	i-	2f	-i	2a	i-
!!LO:PB:g=original
=123	=123	=123	=123	=123	=123	=123	=123
*	*	*	*	*lig	*	*	*
*	*	*lig	*	*	*	*	*
2F	i-	2c	-ni-	2f	i-	2a	-ni-
2G	.	2G	.	2d	.	[2g	-mi-
*	*	*Xlig	*	*Xlig	*	*	*
=124	=124	=124	=124	=124	=124	=124	=124
1D	-ni-	1A	-mi-	1d	-ni-	4g]	.
.	.	.	.	.	.	8f#iL	.
.	.	.	.	.	.	8eJ	.
.	.	.	.	.	.	2f#i	.
=125	=125	=125	=125	=125	=125	=125	=125
1E	-mi-	1G	-ci,	1B	-mi-	1g	-ci,
=126	=126	=126	=126	=126	=126	=126	=126
*	*	*	*	*	*	*	*edit
*	*	*	*	*	*	*col	*
[1C	ci.	2r	.	1e	.	2.cc	i-
*	*	*	*edit	*	*	*	*
.	.	2G	i-	.	.	.	.
.	.	.	.	.	.	8b-jL	.
.	.	.	.	.	.	8aJ	.
*	*	*	*	*	*	*Xcol	*
=127	=127	=127	=127	=127	=127	=127	=127
1C]	.	2.c	-ni-	2.e	.	1g	-ni-
.	.	8B-iL	.	4f	.	.	.
.	.	8AJ	.	.	.	.	.
=128	=128	=128	=128	=128	=128	=128	=128
1r	.	1G	-mi-	2.g	.	2.b-i	-mi-
.	.	.	.	8fL	.	4a	.
.	.	.	.	8eJ	.	.	.
!!LO:LB:g=original
=129	=129	=129	=129	=129	=129	=129	=129
*	*	*	*	*	*	*lig	*
*	*	*lig	*	*	*	*	*
2r	.	2B-i	.	2d	.	2g	.
*	*edit	*	*	*	*	*	*
2F	-i-	2A	.	[2c	-ci.	2f	.
*	*	*Xlig	*	*	*	*Xlig	*
=130	=130	=130	=130	=130	=130	=130	=130
2C	-ni-	1G	.	[1c]	.	1e	.
2C	-mi-	.	.	.	.	.	.
=131	=131	=131	=131	=131	=131	=131	=131
1Fl	ci.	1Fl	ci.	1c]	.	1fl	ci.
=132||	=132||	=132||	=132||	=132||	=132||	=132||	=132||
*	*Xedit	*	*Xedit	*	*	*	*Xedit
*	*	*	*	*	*	*lig	*
*	*	*lig	*	*	*	*	*
*lig	*	*	*	*	*	*	*
1D	-Ie-	1A	-Ie-	1d	-Ie-	1f	-Ie-
=133	=133	=133	=133	=133	=133	=133	=133
1G	.	1B-i	.	2.d	.	1g	.
*Xlig	*	*Xlig	*	*	*	*Xlig	*
.	.	.	.	4B-i	.	.	.
=134	=134	=134	=134	=134	=134	=134	=134
*	*	*	*	*	*	*lig	*
*lig	*	*	*	*	*	*	*
1F	.	1A	.	2.c	.	1a	.
.	.	.	.	4f	.	.	.
!!LO:LB:g=original
=135	=135	=135	=135	=135	=135	=135	=135
1G	.	2r	.	2.d	.	1b-i	.
*Xlig	*	*	*	*	*	*Xlig	*
.	.	2G	.	.	.	.	.
.	.	.	.	4e	.	.	.
=136	=136	=136	=136	=136	=136	=136	=136
2F	-ru-	2c	-ru-	2f	-ru-	2a	-ru-
2F	-sa-	2c	-sa-	2f	-sa-	2a	-sa-
=137	=137	=137	=137	=137	=137	=137	=137
1D	-lem,	1d	-lem,	1f	-lem,	1a	-lem,
=138	=138	=138	=138	=138	=138	=138	=138
1r	.	1r	.	1r	.	1r	.
=139	=139	=139	=139	=139	=139	=139	=139
1F	Ie-	1c	Ie-	1f	Ie-	1a	Ie-
=140	=140	=140	=140	=140	=140	=140	=140
2E	-ru-	2c	-ru-	2g	-ru-	2g	-ru-
2F	.	2c	.	2f	.	2a	.
=141	=141	=141	=141	=141	=141	=141	=141
1F	-sa-	1A	-sa-	1f	-sa-	2.cc	-sa-
.	.	.	.	.	.	8b-iL	.
.	.	.	.	.	.	8aJ	.
!!LO:LB:g=original
=142	=142	=142	=142	=142	=142	=142	=142
2E	.	2c	.	2g	.	2g	.
2D	.	2d	.	2f	.	[2a	.
=143	=143	=143	=143	=143	=143	=143	=143
1E	.	1B	.	1e	.	2a]	.
.	.	.	.	.	.	2g#i	.
=144	=144	=144	=144	=144	=144	=144	=144
1AA	-lem,	1A	-lem,	1e	-lem,	1a	-lem,
=145	=145	=145	=145	=145	=145	=145	=145
1r	.	1r	.	1r	.	1r	.
=146	=146	=146	=146	=146	=146	=146	=146
2D	con-	2A	con-	2d	con-	2f	con-
[2E	-ver-	[2G	-ver-	[2B	-ver-	[2g	-ver-
=147	=147	=147	=147	=147	=147	=147	=147
4E]	.	4G]	.	4B]	.	4g]	.
4E	-te-	4G	-te-	4G	-te-	4g	-te-
2C	-re	2c	-re	2G	-re	2g	-re
=148	=148	=148	=148	=148	=148	=148	=148
1r	.	2r	.	2r	.	2r	.
.	.	2c	ad	2e	ad	2a	ad
!!LO:PB:g=original
=149	=149	=149	=149	=149	=149	=149	=149
1r	.	2.d	Do-	2.f	Do-	2.b-i	Do-
.	.	4c	-mi-	4e	-mi-	4a	-mi-
=150	=150	=150	=150	=150	=150	=150	=150
2C	ad	2c	-num	2e	-num	2g	-num
2F	Do-	2c	De-	2A	.	2f	De-
=151	=151	=151	=151	=151	=151	=151	=151
*	*	*	*	*	*	*lig	*
2C	-mi-	2c	-um	2r	.	2e	.
2D	-num	2A	.	2d	De-	2f	.
*	*	*	*	*	*	*Xlig	*
=152	=152	=152	=152	=152	=152	=152	=152
*	*	*lig	*	*	*	*	*
*lig	*	*	*	*	*	*	*
2E	De-	2G	.	2.B	-um	2g	-um
2G	.	2B	.	.	.	[2g	tu-
*Xlig	*	*Xlig	*	*	*	*	*
.	.	.	.	4G	.	.	.
=153	=153	=153	=153	=153	=153	=153	=153
*	*	*	*	*	*edit	*	*
1D	-um	1A	tu-	1d	tu-	2g]	.
.	.	.	.	.	.	2f#i	.
=154	=154	=154	=154	=154	=154	=154	=154
*	*	*	*edit	*	*	*	*
2r	.	1G	-um,	1B	-um,	1g	-um,
2G	tu-	.	.	.	.	.	.
!!LO:LB:g=original
=155	=155	=155	=155	=155	=155	=155	=155
*	*	*	*	*lig	*Xedit	*	*
*	*	*lig	*	*	*	*	*
1A	.	1c	tu-	1e	tu-	1r	.
=156	=156	=156	=156	=156	=156	=156	=156
*	*	*	*	*	*	*	*edit
1D	-um,	1d	.	1f	.	1a	tu-
*	*	*Xlig	*	*Xlig	*	*	*
=157	=157	=157	=157	=157	=157	=157	=157
*	*	*lig	*	*	*	*	*
1r	.	1G	.	1g	.	2.b-i	.
.	.	.	.	.	.	8aL	.
.	.	.	.	.	.	8gJ	.
=158	=158	=158	=158	=158	=158	=158	=158
*	*	*	*	*	*	*lig	*
*	*	*	*	*lig	*	*	*
*lig	*edit	*	*	*	*	*	*
2D	tu-	1A	.	2d	.	2f	.
*	*	*Xlig	*	*	*	*	*
2C	.	.	.	2e	.	2e	.
*Xlig	*	*	*	*Xlig	*	*Xlig	*
=159	=159	=159	=159	=159	=159	=159	=159
*	*	*lig	*	*	*	*	*
1D	.	1F	.	2.A	.	2f	.
.	.	.	.	.	.	[2f	.
.	.	.	.	4B	.	.	.
=160	=160	=160	=160	=160	=160	=160	=160
1C	.	1G	.	[1cl	um.	2f]	.
*	*	*Xlig	*	*	*	*	*
.	.	.	.	.	.	2e	.
=161	=161	=161	=161	=161	=161	=161	=161
*	*	*	*Xedit	*	*	*	*
1Fl	um.	1Fl	um.	1c]	.	1fl	um.
==	==	==	==	==	==	==	==
*-	*-	*-	*-	*-	*-	*-	*-
!!!system-decoration: [*]
!!!RDF**kern: j = editorial accidental, optional, paren up
!!!RDF**kern: i = editorial accidental
!!!RDF**kern: l = terminal breve
!!!PTL: Gaspar van Weerbeke: Collected Works. V. Settings of Liturgical Texts, Songs, and Instrumental Works
!!!ISBN: 978-1-59551-544-5
!!!PPR: American Institute of Musicology
!!!PC#: Corpus Mensurabilis Musicae 106/V
!!!PDT: 2020
!!!PED: Pavanello, Agnese
!!!YEC: Copyright 2018, Pavanello, Agnese
!!!YEM: CC-BY-NC 4.0 (https://creativecommons.org/licenses/by-nc/4.0/legalcode)
!!!EED: Zybina, Karina
!!!EEV: 2021/08/04
